**kern
*clefF4
*k[]
*M4/4
=1
1GG 1GG [1F [1B [1d
=2
*^
2F] 2B] 2d]	1CC 1GG
2E 2c 2c	.
*v	*v
=3||
[1BB 1G [1d 1f
=4
*^
*	*^
1G 1e	2d]	2BB\]
.	2c	2C\
*v	*v	*v
=5||
1BB 1G [1d [1f
=6
*^
2d] 2f]	1C 1G
2c 2e	.
*v	*v
=7||
1D 1F 1G [1B
=8
*^
2B]	1C 1E 1G
2c	.
*v	*v
=9||
[1FF 1D 1G 1B
=10
*^
2FF]	1C 1G 1c
2EE	.
*v	*v
=11||
1FF [1D 1G [1B
=12
*^
*	*^
2B]	2D]	1EE 1G
2c	2C	.
*v	*v	*v
==
*-
!!!system-decoration: [(s1
